X:33
T:Polska ur Petter Dufvas notbok (Ma6-33)
R:Polska
O:Verkelbäck, Småland
B:Petter Dufvas notbok
S:Petter Dufva
N:Smus Ma6 bild 35
M:3/4
L:1/8
K:D
f2 e2 dc|de c2A2|B2A2 GF|GA F2D2:|
|:A2 AG FD|B2 BA Bc|de fe dc|d2 D4:|

